docs/local/img/sprites/menu.svg

<svg width="26" height="14" viewBox="0 0 26 14" xmlns="http://www.w3.org/2000/svg">
<path d="M25.1875 2.47617H0.812735C0.36422 2.47617 0.000261307 1.92145 0.000261307 1.23809C0.000261307 0.554618 0.364288 0 0.812735 0H25.1875C25.636 0 26 0.554721 26 1.23809C26 1.92145 25.636 2.47617 25.1875 2.47617Z"/>
<path d="M0.812735 5.6875H25.1875C25.636 5.6875 26 6.24222 26 6.92559C26 7.60895 25.636 8.16367 25.1875 8.16367H0.812735C0.364222 8.16367 0.000263214 7.60895 0.000263214 6.92559C0.000263214 6.24222 0.364222 5.6875 0.812735 5.6875Z"/>
<path d="M0.812664 11.375H17.0625C17.511 11.375 17.875 11.9297 17.875 12.6131C17.875 13.2966 17.511 13.8512 17.0625 13.8512H0.812664C0.364149 13.8512 0.000190735 13.2965 0.000190735 12.6131C0.000123978 11.9296 0.364149 11.375 0.812664 11.375Z"/>
</svg>

<svg width="26" height="14" viewBox="0 0 26 14" xmlns="http://www.w3.org/2000/svg"><path d="M25.188 2.476H.813C.364 2.476 0 1.921 0 1.238 0 .555.364 0 .813 0h24.375c.448 0 .812.555.812 1.238 0 .683-.364 1.238-.813 1.238zM.813 5.688h24.375c.448 0 .812.554.812 1.238 0 .683-.364 1.238-.813 1.238H.814C.364 8.164 0 7.609 0 6.926c0-.684.364-1.239.813-1.239zm0 5.687h16.25c.448 0 .812.555.812 1.238 0 .684-.364 1.238-.813 1.238H.813c-.448 0-.812-.555-.812-1.238 0-.683.364-1.238.813-1.238z"/></svg>
